public/images/projectapp/02.name.svg

<svg viewBox="0 0 48.19 48.19" xmlns="http://www.w3.org/2000/svg"><rect fill="#f8eb5b" height="45.04" rx="22.52" width="45.04" x="1.63" y="1.58"/><g fill="#1d1d1b"><path d="m23.21 4.75v5a9.93 9.93 0 0 0 -9.42 9.89v16a4.2 4.2 0 0 0 4.21 4.19h11.5a4.2 4.2 0 0 0 4.19-4.19v-15.91a9.94 9.94 0 0 0 -9.43-9.9v-5.08a.53.53 0 1 0 -1.05 0zm3.15 14.66c0 3.47-5.24 3.47-5.24 0s5.24-3.47 5.24 0zm6.28.32v15.91a3.15 3.15 0 0 1 -3.14 3.15h-11.5a3.15 3.15 0 0 1 -3.14-3.15v-15.91a8.89 8.89 0 0 1 8.37-8.86v4.93a3.66 3.66 0 0 0 -3.14 3.61c0 4.86 7.33 4.85 7.33 0a3.66 3.66 0 0 0 -3.14-3.61v-5a8.91 8.91 0 0 1 8.36 8.93z"/><path d="m17.45 27.27h12.57v1.05h-12.57z"/><path d="m17.45 32.5h12.57v1.05h-12.57z"/></g></svg>

<svg id="Layer_1" data-name="Layer 1" xmlns="http://www.w3.org/2000/svg" viewBox="0 0 48.19 48.19">
  <defs>
    <style>
      .cls-1 {
        fill: #f8eb5b;
      }

      .cls-2 {
        fill: #1d1d1b;
      }
    </style>
  </defs>
  <title>name</title>
  <g>
    <rect class="cls-1" x="1.63" y="1.58" width="45.04" height="45.04" rx="22.52"/>
    <g>
      <path class="cls-2" d="M23.21,4.75v5a9.93,9.93,0,0,0-9.42,9.89v16A4.2,4.2,0,0,0,18,39.83H29.5a4.2,4.2,0,0,0,4.19-4.19V19.73a9.94,9.94,0,0,0-9.43-9.9V4.75A.53.53,0,1,0,23.21,4.75Zm3.15,14.66c0,3.47-5.24,3.47-5.24,0S26.36,15.94,26.36,19.41Zm6.28.32V35.64a3.15,3.15,0,0,1-3.14,3.15H18a3.15,3.15,0,0,1-3.14-3.15V19.73a8.89,8.89,0,0,1,8.37-8.86V15.8a3.66,3.66,0,0,0-3.14,3.61c0,4.86,7.33,4.85,7.33,0a3.66,3.66,0,0,0-3.14-3.61v-5A8.91,8.91,0,0,1,32.64,19.73Z"/>
      <rect class="cls-2" x="17.45" y="27.27" width="12.57" height="1.05"/>
      <rect class="cls-2" x="17.45" y="32.5" width="12.57" height="1.05"/>
    </g>
  </g>
</svg>
